SVG/mars-stroke-v.svg

<?xml version="1.0" encoding="utf-8"?>
<!-- Generated by IcoMoon.io -->
<!DOCTYPE svg PUBLIC "-//W3C//DTD SVG 1.1//EN" "http://www.w3.org/Graphics/SVG/1.1/DTD/svg11.dtd">
<svg version="1.1" xmlns="http://www.w3.org/2000/svg" xmlns:xlink="http://www.w3.org/1999/xlink" width="9" height="14" viewBox="0 0 9 14">
<path fill="#444444" d="M5 5.031q1.695 0.187 2.848 1.465t1.152 3.004q0 1.305-0.68 2.391t-1.844 1.656-2.492 0.422q-1.039-0.117-1.918-0.688t-1.422-1.469-0.629-1.945q-0.094-1.211 0.41-2.281t1.453-1.75 2.121-0.805v-1.031h-1.25q-0.109 0-0.18-0.070t-0.070-0.18v-0.5q0-0.109 0.070-0.18t0.18-0.070h1.25v-1.289l-0.719 0.719q-0.078 0.070-0.18 0.070t-0.172-0.070l-0.359-0.359q-0.070-0.070-0.070-0.172t0.070-0.18l1.578-1.57q0.148-0.148 0.352-0.148t0.352 0.148l1.578 1.57q0.070 0.078 0.070 0.18t-0.070 0.172l-0.359 0.359q-0.070 0.070-0.172 0.070t-0.18-0.070l-0.719-0.719v1.289h1.25q0.109 0 0.18 0.070t0.070 0.18v0.5q0 0.109-0.070 0.18t-0.18 0.070h-1.25v1.031zM4.5 13q1.445 0 2.473-1.027t1.027-2.473-1.027-2.473-2.473-1.027-2.473 1.027-1.027 2.473 1.027 2.473 2.473 1.027z"></path>
</svg>

<svg xmlns="http://www.w3.org/2000/svg" viewBox="0 0 9 14"><path d="M5 5.03q1.695.188 2.848 1.466T9 9.5q0 1.305-.68 2.39t-1.844 1.657-2.492.422q-1.04-.118-1.918-.69T.644 11.813t-.63-1.945q-.093-1.21.41-2.28t1.454-1.75 2.12-.806V4H2.75q-.108 0-.18-.07t-.07-.18v-.5q0-.11.07-.18T2.75 3H4V1.71l-.718.72q-.078.07-.18.07t-.172-.07l-.36-.36Q2.5 2 2.5 1.9t.07-.18L4.15.15q.147-.15.35-.15t.353.15l1.58 1.57q.07.077.07.18t-.07.17l-.36.36q-.07.07-.172.07t-.18-.07l-.72-.72V3h1.25q.11 0 .18.07t.07.18v.5q0 .11-.07.18T6.25 4H5v1.03zM4.5 13q1.445 0 2.473-1.027T8 9.5 6.973 7.027 4.5 6 2.027 7.027 1 9.5t1.027 2.473T4.5 13z" /></svg>
